X: 27
T: Laride
M:4/4
L:1/8
R:Laride
S:Yann Dour
C: trad.
K: G
|: B2 GG (3ABA G2 |Bc (3ded Bc d2 :|
|: Bd cB cd B2 |AG Ac BG (3ABA|Bd cB cd (3GBG|AG AB (3ABA G2 :|
